loleaflet/images/lc_setanchortocellresize.svg

<svg viewBox="0 0 24 24" xmlns="http://www.w3.org/2000/svg"><g stroke-width=".999999" transform="matrix(1.00000000957 0 0 1.00000000957 0 -.00000771555)"><path d="m3 2v6a1.0001 1.0001 0 0 1 1-1h1a1.0001 1.0001 0 0 1 1 1v5h5a1.0001 1.0001 0 0 1 1 1v1a1.0001 1.0001 0 0 1 -1 1h-6-1a1.0001 1.0001 0 0 1 -1-1v6h5v-1.5c0-.432593.1940807-.828873.4980469-1.105469.2677906-.243677.6208435-.394531 1.0019531-.394531h1.005859 1.994141c.813703 0 1.5.686297 1.5 1.5 0 .662853-.457681 1.234142-1.066406 1.425781.040524.026682.083857.048559.125.074219h1.941406v-4h-1.5c-.813703 0-1.5-.686297-1.5-1.5s.686297-1.5 1.5-1.5h1.5v-.572266c-1.112875-.601945-1.9979-1.651784-2-2.925781v-.001953c0-.9028472.369436-1.7974117 1-2.4433594v-3.0566406h-5a1.0001 1.0001 0 0 1 -1-1v-1a1.0001 1.0001 0 0 1 1-1zm13 0a1.0001 1.0001 0 0 1 1 1v1 3.0507812c.739428.1101257 1.445521.4455204 1.974609.9746094.647921.6479205 1.025391 1.5583115 1.025391 2.4746094-.000138 1.275824-.885603 2.32879-2 2.931641v.568359h1.5c.813703 0 1.5.686297 1.5 1.5s-.686297 1.5-1.5 1.5h-1.5v4h1.949219c.039845-.024886.081828-.046415.121093-.072266-.610793-.190319-1.070312-.763382-1.070312-1.427734 0-.813703.686297-1.5 1.5-1.5h1.5v-16z" fill="#fafafa"/><path d="m7 2v4h-4v1h1 1 2v4 1h1 4v2 1 .5l1-1.40625v-2.09375h.447266l-.398438-1h-.048828v-.498047-.001953-3.5-1h-1-4v-2-1-1zm5 13.5v.5h-1-3-1-3-1v1h4v4h1v-1.5-2.5h4v1h.5l.5.09375v-1.09375h.5zm5-13.5v1 1 2 1 .050781l1 .3046876v-.3554686h4v-1h-4v-4zm-9 5h4v4h-4zm11.951172 4-.396484 1h2.445312v-1zm.955078 5-1.40625 1h2.5v-1zm-7.90625 4.892578-.066406.033203.066406.039063z" fill="#c8c6c4"/><path d="m3 1c-.554 0-1 .4459969-1 1v19c0 .554003.446 1 1 1h5v-1h-5v-19h19v16h.498047.501953v-16c0-.5540031-.446-1-1-1z" fill="#3a3a38"/></g><g fill="#1e8bcd" transform="translate(0 .000128)"><path d="m12 7v4h-4v-4z" opacity=".5" stroke-width=".561952"/><path d="m7 6v1 4 1h6v-1-4-1zm1 1h4v4h-4z"/></g><path d="m9 3v1h6v3.3554688c.31719-.1509219.652766-.2529727 1-.3046876v-3.0507812-1h-1z" fill="#3a3a38"/><path d="m11 15v-1h-6v-6h-1v6 1h1z" fill="#3a3a38"/><path d="m16.5 8a2.5 2.5 0 0 0 -2.5 2.5 2.5 2.5 0 0 0 2 2.445313v2.054687h-2.5c-.277 0-.5.223-.5.5s.223.5.5.5h2.5v6.974609a7.5 7.5 0 0 1 -5.490234-2.974609h1.990234c.277 0 .5-.223.5-.5s-.223-.5-.5-.5h-3c-.277 0-.5.223-.5.5v3c0 .277.223.5.5.5s.5-.223.5-.5v-1.550781a8.5 8.5 0 0 0 6.5 3.050781 8.5 8.5 0 0 0 6.5-3.042969v1.542969c0 .277.223.5.5.5s.5-.223.5-.5v-3c0-.277-.223-.5-.5-.5h-3c-.277 0-.5.223-.5.5s.223.5.5.5h1.988281a7.5 7.5 0 0 1 -5.488281 2.974609v-6.974609h2.5c.277 0 .5-.223.5-.5s-.223-.5-.5-.5h-2.5v-2.050781a2.5 2.5 0 0 0 2-2.449219 2.5 2.5 0 0 0 -2.5-2.5zm0 1a1.5 1.5 0 0 1 1.5 1.5 1.5 1.5 0 0 1 -1.5 1.5 1.5 1.5 0 0 1 -1.5-1.5 1.5 1.5 0 0 1 1.5-1.5z" fill="#1e8bcd"/></svg>

<?xml version="1.0" encoding="UTF-8" standalone="no"?>
<svg
   xmlns:dc="http://purl.org/dc/elements/1.1/"
   xmlns:cc="http://creativecommons.org/ns#"
   xmlns:rdf="http://www.w3.org/1999/02/22-rdf-syntax-ns#"
   xmlns:svg="http://www.w3.org/2000/svg"
   xmlns="http://www.w3.org/2000/svg"
   xmlns:sodipodi="http://sodipodi.sourceforge.net/DTD/sodipodi-0.dtd"
   xmlns:inkscape="http://www.inkscape.org/namespaces/inkscape"
   viewBox="0 0 24 24"
   version="1.1"
   id="svg4"
   sodipodi:docname="lc_setanchortocellresize.svg"
   inkscape:version="0.92.5 (2060ec1f9f, 2020-04-08)">
  <metadata
     id="metadata10">
    <rdf:RDF>
      <cc:Work
         rdf:about="">
        <dc:format>image/svg+xml</dc:format>
        <dc:type
           rdf:resource="http://purl.org/dc/dcmitype/StillImage" />
        <dc:title></dc:title>
      </cc:Work>
    </rdf:RDF>
  </metadata>
  <defs
     id="defs8" />
  <sodipodi:namedview
     pagecolor="#ffffff"
     bordercolor="#666666"
     borderopacity="1"
     objecttolerance="10"
     gridtolerance="10"
     guidetolerance="10"
     inkscape:pageopacity="0"
     inkscape:pageshadow="2"
     inkscape:window-width="1366"
     inkscape:window-height="700"
     id="namedview6"
     showgrid="true"
     inkscape:zoom="27.812867"
     inkscape:cx="12.334173"
     inkscape:cy="13.929576"
     inkscape:window-x="0"
     inkscape:window-y="0"
     inkscape:window-maximized="1"
     inkscape:current-layer="svg4">
    <inkscape:grid
       type="xygrid"
       id="grid817" />
  </sodipodi:namedview>
  <g
     style="stroke-width:0.26458299"
     transform="matrix(3.7795275,0,0,3.7795275,1.8651575e-8,-1098.5196)"
     id="g8">
    <path
       style="fill:#fafafa;stroke-width:0.99999869"
       d="M 3 2 L 3 8 A 1.0001 1.0001 0 0 1 4 7 L 5 7 A 1.0001 1.0001 0 0 1 6 8 L 6 13 L 11 13 A 1.0001 1.0001 0 0 1 12 14 L 12 15 A 1.0001 1.0001 0 0 1 11 16 L 5 16 L 4 16 A 1.0001 1.0001 0 0 1 3 15 L 3 21 L 8 21 L 8 19.5 C 8 19.067407 8.1940807 18.671127 8.4980469 18.394531 C 8.7658375 18.150854 9.1188904 18 9.5 18 L 10.505859 18 L 12.5 18 C 13.313703 18 14 18.686297 14 19.5 C 14 20.162853 13.542319 20.734142 12.933594 20.925781 C 12.974118 20.952463 13.017451 20.97434 13.058594 21 L 15 21 L 15 17 L 13.5 17 C 12.686297 17 12 16.313703 12 15.5 C 12 14.686297 12.686297 14 13.5 14 L 15 14 L 15 13.427734 C 13.887125 12.825789 13.0021 11.77595 13 10.501953 L 13 10.5 C 13 9.5971528 13.369436 8.7025883 14 8.0566406 L 14 5 L 9 5 A 1.0001 1.0001 0 0 1 8 4 L 8 3 A 1.0001 1.0001 0 0 1 9 2 L 3 2 z M 16 2 A 1.0001 1.0001 0 0 1 17 3 L 17 4 L 17 7.0507812 C 17.739428 7.1609069 18.445521 7.4963016 18.974609 8.0253906 C 19.62253 8.6733111 20 9.5837021 20 10.5 C 19.999862 11.775824 19.114397 12.82879 18 13.431641 L 18 14 L 19.5 14 C 20.313703 14 21 14.686297 21 15.5 C 21 16.313703 20.313703 17 19.5 17 L 18 17 L 18 21 L 19.949219 21 C 19.989064 20.975114 20.031047 20.953585 20.070312 20.927734 C 19.459519 20.737415 19 20.164352 19 19.5 C 19 18.686297 19.686297 18 20.5 18 L 22 18 L 22 2 L 16 2 z "
       transform="matrix(0.26458334,0,0,0.26458334,0,290.64998)"
       id="path2" />
    <path
       style="fill:#c8c6c4;stroke-width:0.99999869"
       d="M 7,2 V 6 H 3 v 1 h 1 1 2 v 4 1 h 1 4 v 2 1 0.5 l 1,-1.40625 V 12 h 0.447266 L 13.048828,11 H 13 V 10.501953 10.5 7 6 H 12 8 V 4 3 2 Z m 5,13.5 V 16 H 11 8 7 4 3 v 1 h 4 v 4 H 8 V 19.5 17 h 4 v 1 h 0.5 L 13,18.09375 V 17 h 0.5 z M 17,2 v 1 1 2 1 0.050781 l 1,0.3046876 V 7 h 4 V 6 H 18 V 2 Z M 8,7 h 4 v 4 H 8 Z m 11.951172,4 -0.396484,1 H 22 V 11 Z M 20.90625,16 19.5,17 H 22 V 16 Z M 13,20.892578 12.933594,20.925781 13,20.964844 Z"
       transform="matrix(0.26458334,0,0,0.26458334,0,290.64998)"
       id="path4"
       inkscape:connector-curvature="0"
       sodipodi:nodetypes="ccccccccccccccccccccccccccccccccccccccccccccccccccccccccccccccccccccccccccccccccc" />
    <path
       style="fill:#3a3a38;stroke-width:0.99999869"
       d="M 3,1 C 2.446,1 2,1.4459969 2,2 v 19 c 0,0.554003 0.446,1 1,1 H 8 V 21 H 3 V 2 H 22 V 18 H 22.498047 23 V 2 C 23,1.4459969 22.554,1 22,1 Z"
       transform="matrix(0.26458334,0,0,0.26458334,0,290.64998)"
       id="path6"
       inkscape:connector-curvature="0"
       sodipodi:nodetypes="ssssccccccccsss" />
  </g>
  <g
     style="fill:#1e8bcd"
     transform="translate(1.8651575e-8,1.2806905e-4)"
     id="g14">
    <path
       style="opacity:0.5;stroke-width:0.56195199"
       inkscape:connector-curvature="0"
       d="m 12,7 v 4 H 8 V 7 Z"
       id="path10" />
    <path
       inkscape:connector-curvature="0"
       d="m 7,6 v 1 4 1 h 6 V 11 7 6 Z m 1,1 h 4 v 4 H 8 Z"
       id="path12" />
  </g>
  <path
     style="opacity:1;fill:#3a3a38;fill-opacity:1;stroke:none;stroke-width:1;stroke-linecap:round;stroke-linejoin:round;stroke-miterlimit:4;stroke-dasharray:none;stroke-opacity:0.50196078"
     d="M 9 3 L 9 4 L 15 4 L 15 7.3554688 C 15.31719 7.2045469 15.652766 7.1024961 16 7.0507812 L 16 4 L 16 3 L 15 3 L 9 3 z "
     id="rect988" />
  <path
     sodipodi:nodetypes="ccccccccc"
     inkscape:connector-curvature="0"
     id="path993"
     d="M 11,15 V 14 H 5 V 8 H 4 v 6 1 h 1 z"
     style="opacity:1;fill:#3a3a38;fill-opacity:1;stroke:none;stroke-width:1;stroke-linecap:round;stroke-linejoin:round;stroke-miterlimit:4;stroke-dasharray:none;stroke-opacity:0.50196078" />
  <path
     inkscape:connector-curvature="0"
     style="fill:#1e8bcd"
     d="m 16.5,8 a 2.5,2.5 0 0 0 -2.5,2.5 2.5,2.5 0 0 0 2,2.445313 V 15 h -2.5 c -0.277,0 -0.5,0.223 -0.5,0.5 0,0.277 0.223,0.5 0.5,0.5 H 16 v 6.974609 A 7.5,7.5 0 0 1 10.509766,20 H 12.5 C 12.777,20 13,19.777 13,19.5 13,19.223 12.777,19 12.5,19 h -3 C 9.223,19 9,19.223 9,19.5 v 3 C 9,22.777 9.223,23 9.5,23 9.777,23 10,22.777 10,22.5 V 20.949219 A 8.5,8.5 0 0 0 16.5,24 8.5,8.5 0 0 0 23,20.957031 V 22.5 c 0,0.277 0.223,0.5 0.5,0.5 0.277,0 0.5,-0.223 0.5,-0.5 v -3 C 24,19.223 23.777,19 23.5,19 h -3 c -0.277,0 -0.5,0.223 -0.5,0.5 0,0.277 0.223,0.5 0.5,0.5 h 1.988281 A 7.5,7.5 0 0 1 17,22.974609 V 16 h 2.5 C 19.777,16 20,15.777 20,15.5 20,15.223 19.777,15 19.5,15 H 17 V 12.949219 A 2.5,2.5 0 0 0 19,10.5 2.5,2.5 0 0 0 16.5,8 Z m 0,1 A 1.5,1.5 0 0 1 18,10.5 1.5,1.5 0 0 1 16.5,12 1.5,1.5 0 0 1 15,10.5 1.5,1.5 0 0 1 16.5,9 Z"
     id="path2-3" />
</svg>
